icon_installer/data/icons/scalable/actions/show-phonelink-symbolic.svg

<?xml version="1.0" encoding="UTF-8"?>
<svg height="16px" viewBox="0 0 16 16" width="16px" xmlns="http://www.w3.org/2000/svg">
    <g fill="#222222">
        <path d="m 4 1 c -1.660156 0 -3 1.339844 -3 3 v 1 h 2 v -1 c 0 -0.554688 0.445312 -1 1 -1 h 8 c 0.554688 0 1 0.445312 1 1 v 6 c 0 0.554688 -0.445312 1 -1 1 h -3 v 2 h 3 c 1.660156 0 3 -1.339844 3 -3 v -6 c 0 -1.660156 -1.339844 -3 -3 -3 z m 5 13.023438 v 1.976562 h 3 c 1 0 1 -1 1 -1 s -0.050781 -0.84375 -4 -0.976562 z m 0 0"/>
        <path d="m 2.28125 6 c -0.710938 0 -1.28125 0.570312 -1.28125 1.28125 v 7.4375 c 0 0.710938 0.570312 1.28125 1.28125 1.28125 h 4.4375 c 0.710938 0 1.28125 -0.570312 1.28125 -1.28125 v -7.4375 c 0 -0.710938 -0.570312 -1.28125 -1.28125 -1.28125 z m 0.128906 1 h 0.589844 c 0 0.554688 0.445312 1 1 1 h 1 c 0.554688 0 1 -0.445312 1 -1 h 0.589844 c 0.226562 0 0.410156 0.183594 0.410156 0.410156 v 6.164063 c 0 0.226562 -0.183594 0.410156 -0.410156 0.410156 h -4.179688 c -0.226562 0 -0.410156 -0.183594 -0.410156 -0.410156 v -6.164063 c 0 -0.226562 0.183594 -0.410156 0.410156 -0.410156 z m 0 0"/>
    </g>
</svg>

<svg xmlns="http://www.w3.org/2000/svg" width="16" height="16"><g fill="#222"><path d="M4 1C2.34 1 1 2.34 1 4v1h2V4c0-.555.445-1 1-1h8c.555 0 1 .445 1 1v6c0 .555-.445 1-1 1H9v2h3c1.66 0 3-1.34 3-3V4c0-1.66-1.34-3-3-3zm5 13.023V16h3c1 0 1-1 1-1s-.05-.844-4-.977zm0 0"/><path d="M2.281 6C1.571 6 1 6.57 1 7.281v7.438C1 15.429 1.57 16 2.281 16H6.72C7.429 16 8 15.43 8 14.719V7.28C8 6.571 7.43 6 6.719 6zm.13 1H3c0 .555.445 1 1 1h1c.555 0 1-.445 1-1h.59a.41.41 0 0 1 .41.41v6.164a.41.41 0 0 1-.41.41H2.41a.41.41 0 0 1-.41-.41V7.41A.41.41 0 0 1 2.41 7zm0 0"/></g></svg>
